!!!COM:	Bach, Johann Sebastian
!!!CDT:	1685/02/21/-1750/07/28/
!!!OTL@@DE:	Hilf, Herr Jesu, la&szlig; gelingen
!!!SCT:	BWV 248/42
!!!PC#:	368
!!!AGN:	chorale
**kern	**kern	**kern	**kern
*ICvox	*ICvox	*ICvox	*ICvox
*Ibass	*Itenor	*Ialto	*Isoprn
*I"Bass	*I"Tenor	*I"Alto	*I"Soprano
*>[A,A,B]	*>[A,A,B]	*>[A,A,B]	*>[A,A,B]
*>norep[A,B]	*>norep[A,B]	*>norep[A,B]	*>norep[A,B]
*>A	*>A	*>A	*>A
*	*oclefC4	*oclefC3	*oclefC1
*clefF4	*clefGv2	*clefG2	*clefG2
*k[b-]	*k[b-]	*k[b-]	*k[b-]
*F:	*F:	*F:	*F:
*M3/4	*M3/4	*M3/4	*M3/4
*MM100	*MM100	*MM100	*MM100
=1-	=1-	=1-	=1-
8FL	4f	4a	4cc
8GJ	.	.	.
4A	2c	2f	2a
4F	.	.	.
=2	=2	=2	=2
2C	4.c	4f	2g
.	.	4e	.
.	8B-	.	.
4D	4A	4f	4f
=3	=3	=3	=3
8GL	2B-	4d	4b-
8FJ	.	.	.
4E-	.	4g	4.cc
4F	8AL	4f	.
.	16B-L	.	16ddLL
.	16cJJ	.	16ee-JJ
=4	=4	=4	=4
8BB-L	4c	2.f	2.dd
8CJ	.	.	.
4D	8B-L	.	.
.	8AJ	.	.
4BB-	4B-	.	.
=5	=5	=5	=5
2.F;	2.A;	2.f;	2.cc;
=6	=6	=6	=6
4D	4f	4a	4dd
4G	2d	2g	2b-
4F	.	.	.
=7	=7	=7	=7
4E	8cL	4g	2cc
.	8B-J	.	.
8FL	4A	4f	.
8EJ	.	.	.
8DL	4A	4f	4f
8CJ	.	.	.
=8	=8	=8	=8
8DL	8dL	8fL	4b-
8EJ	8cJ	8gJ	.
4F	2c	4g	2a
4F	.	4f	.
=9	=9	=9	=9
2.C;	2.c;	2.e;	2.g;
=10:|!	=10:|!	=10:|!	=10:|!
*>B	*>B	*>B	*>B
8CL	2c	8gL	4ee
8DJ	.	8fJ	.
4E	.	4g	2cc
4C	4e	4g	.
=11	=11	=11	=11
8FL	2c	4g	2a
8EJ	.	.	.
4F	.	4f	.
4B-	[4B-	4f	4dd
=12	=12	=12	=12
4E	4B-]	4g	4cc#
4F	4A	4a	4.dd
[4D	8dL	8b-L	.
.	8cnXJ	8aJ	16eeLL
.	.	.	16ffJJ
=13	=13	=13	=13
4D]	4B-	8gL	2.ee
.	.	8fJ	.
8C#L	8AL	4.g	.
8BBJ	8GJ	.	.
4C#	4A	.	.
.	.	8e	.
=14	=14	=14	=14
2.D;	2.A;	2.f;	2.a;
=15	=15	=15	=15
8B-L	4.B-	4f	4dd
8AJ	.	.	.
4G	.	4g	4ee
.	8G	.	.
4F	4c	4a	4ff
=16	=16	=16	=16
8EL	2c	8gL	4gg
8DJ	.	8fJ	.
4E	.	4g	4cc
4C	4G	4e	4b-
=17	=17	=17	=17
4F	2F	4c	4a
2BB-	.	4B-	4dd
.	4d	4f	4b-
=18	=18	=18	=18
8CL	4G	4f	2.g
8BB-J	.	.	.
2C	4c	8eL	.
.	.	8dJ	.
.	4B-	4e	.
=19	=19	=19	=19
2.FF;	2.A;	2.c;	2.f;
==	==	==	==
*-	*-	*-	*-
!!!YOR1: 371 vierstimmige Choralges&auml;nge von Johann Sebastian Bach, 
!!!YOR2: 4th ed. by Alfred D&ouml;rffel (Leipzig: Breitkopf und H&auml;rtel, 
!!!YOR2: c.1875). 178 pp. Plate "V.A.10".  reprint: J.S. Bach, 371 Four-Part 
!!!YOR4: Chorales (New York: Associated Music Publishers, Inc., c.1940).
!!!SMS: B&H, 4th ed, Alfred D&ouml;rffel, c.1875, plate V.A.10
!!!EED:  Craig Stuart Sapp
!!!EEV:  2009/05/22
